; generated by Slic3r 1.2.9 on 2017-06-03 at 23:58:02

; external perimeters extrusion width = 20.00mm
; perimeters extrusion width = 34.00mm
; infill extrusion width = 63.90mm
; solid infill extrusion width = 34.00mm
; top infill extrusion width = 34.00mm

M107
M104 S205 ; set temperature
G28 ; home all axes
G1 Z5 F5000 ; lift nozzle

M109 S205 ; wait for temperature to be reached
G21 ; set units to millimeters
G90 ; use absolute coordinates
M82 ; use absolute distances for extrusion
G92 E0
G1 Z5.000 F7800.000
G1 E-2.00000 F2400.00000
G92 E0
G1 X894.937 Y935.065 F7800.000
G1 E2.00000 F2400.00000
G1 X897.456 Y932.949 E22.77294 F1800.000
G1 X916.594 Y920.191 E168.00868
G1 X919.046 Y918.869 E185.60061
G1 X941.575 Y909.315 E340.12660
G1 X943.939 Y908.537 E355.84254
G1 X969.199 Y902.512 E519.82346
G1 X971.518 Y902.148 E534.64400
G1 X998.855 Y900.046 E707.77613
G1 X1001.145 Y900.046 E722.23360
G1 X1005.520 Y900.382 E749.94329
G1 X1028.482 Y902.148 E895.36592 F1800.000
G1 X1030.801 Y902.512 E910.18640
G1 X1056.061 Y908.537 E1074.16724
G1 X1058.425 Y909.315 E1089.88321
G1 X1080.954 Y918.869 E1244.40926
G1 X1083.406 Y920.191 E1262.00121
G1 X1102.544 Y932.950 E1407.23707
G1 X1105.063 Y935.065 E1428.01006
G1 X1120.059 Y950.781 E1565.17970
G1 X1122.412 Y954.027 E1590.49325
G1 X1132.295 Y972.441 E1722.45854
G1 X1133.851 Y976.954 E1752.60579
G1 X1137.399 Y997.454 E1883.98085
G1 X1137.399 Y1002.546 E1916.12830
G1 X1133.851 Y1023.046 E2047.50342
G1 X1132.295 Y1027.559 E2077.65050
G1 X1122.412 Y1045.973 E2209.61601
G1 X1120.059 Y1049.219 E2234.92937
G1 X1105.063 Y1064.935 E2372.09923
G1 X1102.544 Y1067.051 E2392.87235
G1 X1083.406 Y1079.809 E2538.10830
G1 X1080.954 Y1081.131 E2555.70003
G1 X1058.425 Y1090.685 E2710.22592
G1 X1056.061 Y1091.463 E2725.94178
G1 X1030.801 Y1097.488 E2889.92273
G1 X1028.482 Y1097.852 E2904.74329
G1 X1001.145 Y1099.954 E3077.87563
G1 X998.855 Y1099.954 E3092.33305
G1 X971.518 Y1097.852 E3265.46527
G1 X969.199 Y1097.488 E3280.28588
G1 X943.939 Y1091.463 E3444.26670
G1 X941.575 Y1090.685 E3459.98265
G1 X919.046 Y1081.131 E3614.50859
G1 X916.594 Y1079.809 E3632.10043
G1 X897.456 Y1067.050 E3777.33645
G1 X894.937 Y1064.935 E3798.10946
G1 X879.941 Y1049.219 E3935.27920
G1 X877.588 Y1045.973 E3960.59270
G1 X867.705 Y1027.559 E4092.55794
G1 X866.149 Y1023.046 E4122.70514
G1 X862.601 Y1002.545 E4254.08027
G1 X862.601 Y997.454 E4286.22771
G1 X866.149 Y976.954 E4417.60284
G1 X867.705 Y972.441 E4447.75005
G1 X877.588 Y954.027 E4579.71537
G1 X879.941 Y950.781 E4605.02900
G1 X892.866 Y937.235 E4723.25509
G1 E4721.25509 F2400.00000
G92 E0
G1 X1091.029 Y1050.778 F7800.000
G1 E2.00000 F2400.00000
G1 X1072.743 Y1062.968 E140.77628 F1800.000
G1 X1051.030 Y1072.176 E289.70143
G1 X1026.561 Y1078.013 E448.55117
G1 X1000.000 Y1080.056 E616.76499
G1 X973.439 Y1078.013 E784.97882
G1 X948.970 Y1072.176 E943.82843
G1 X927.257 Y1062.968 E1092.75379
G1 X908.971 Y1050.778 E1231.52992
G1 X894.825 Y1035.953 E1360.92095
G1 X885.646 Y1018.850 E1483.49295
G1 X882.384 Y1000.000 E1604.28892
G1 X885.646 Y981.150 E1725.08494
G1 X894.825 Y964.047 E1847.65695
G1 X908.971 Y949.222 E1977.04798
G1 X927.257 Y937.032 E2115.82407
G1 X948.970 Y927.824 E2264.74943
G1 X973.439 Y921.987 E2423.59908
G1 X1000.000 Y919.944 E2591.81282
G1 X1003.992 Y920.251 E2617.09399
G1 X1026.561 Y921.987 E2760.02671 F1800.000
G1 X1051.030 Y927.824 E2918.87629
G1 X1072.743 Y937.032 E3067.80167
G1 X1091.029 Y949.222 E3206.57786
G1 X1105.175 Y964.047 E3335.96877
G1 X1114.354 Y981.150 E3458.54081
G1 X1117.616 Y1000.000 E3579.33678
G1 X1114.354 Y1018.850 E3700.13280
G1 X1105.175 Y1035.953 E3822.70488
G1 X1093.100 Y1048.607 E3933.15213
G1 X1088.617 Y957.566 F7800.000
G1 X1084.154 Y953.103 E3974.52327 F1800.000
G1 X1054.275 Y936.329 F7800.000
G1 X1110.153 Y992.208 E4492.51267 F1800.000
G1 X1111.078 Y1006.237 E4584.67440
G1 X1035.235 Y930.394 E5287.73933
G1 X1018.981 Y927.246 E5396.25656
G1 X1109.145 Y1017.409 E6232.06506
G1 X1104.765 Y1026.135 E6296.06031
G1 X1004.784 Y926.154 E7222.87878
G1 X991.661 Y926.136 E7308.89811
G1 X1099.911 Y1034.385 E8312.36494
G1 X1093.512 Y1041.091 E8373.12338
G1 X979.492 Y927.072 E9430.07909
G1 X968.028 Y928.712 E9505.99352
G1 X1086.904 Y1047.589 E10607.97016
G1 X1079.041 Y1052.831 E10669.91483
G1 X957.446 Y931.236 E11797.08734
G1 X947.202 Y934.097 E11866.80764
G1 X1071.178 Y1058.073 E13016.05688
G1 X1062.001 Y1062.001 E13081.49000
G1 X937.999 Y937.999 E14230.97432
G1 X928.822 Y941.927 E14296.40743
G1 X1052.798 Y1065.903 E15445.65663
G1 X1042.553 Y1068.764 E15515.37692
G1 X920.959 Y947.169 E16642.54930
G1 X913.096 Y952.411 E16704.49397
G1 X1031.972 Y1071.288 E17806.47049
G1 X1020.508 Y1072.928 E17882.38491
G1 X906.488 Y958.909 E18939.34051
G1 X900.089 Y965.615 E19000.09894
G1 X1008.339 Y1073.864 E20003.56567
G1 X995.216 Y1073.846 E20089.58504
G1 X895.235 Y973.865 E21016.40339
G1 X890.855 Y982.591 E21080.39865
G1 X981.019 Y1072.754 E21916.20703
G1 X964.765 Y1069.606 E22024.72438
G1 X888.922 Y993.763 E22727.78907
G1 X889.847 Y1007.792 E22819.95084
G1 X945.725 Y1063.671 E23337.93983
G1 X915.846 Y1046.897 F7800.000
G1 X911.383 Y1042.434 E23379.30742 F1800.000
M104 S200 ; set temperature
G1 Z10.000 F7800.000
G1 E23377.30742 F2400.00000
G92 E0
G1 X1087.794 Y1046.925 F7800.000
G1 E2.00000 F2400.00000
G1 X1070.359 Y1058.548 E282.53744 F1800.000
G1 X1049.463 Y1067.410 E586.41402
G1 X1025.784 Y1073.058 E912.32775
G1 X1000.000 Y1075.042 E1258.54642
G1 X974.216 Y1073.058 E1604.76511
G1 X950.537 Y1067.410 E1930.67857
G1 X929.641 Y1058.548 E2234.55553
G1 X912.206 Y1046.925 E2515.09264
G1 X898.910 Y1032.991 E2772.93485
G1 X890.434 Y1017.199 E3012.89626
G1 X887.458 Y1000.000 E3246.57786
G1 X890.434 Y982.801 E3480.25959
G1 X898.910 Y967.009 E3720.22099
G1 X912.206 Y953.075 E3978.06319
G1 X929.641 Y941.452 E4258.60026
G1 X950.537 Y932.590 E4562.47722
G1 X974.216 Y926.942 E4888.39077
G1 X1000.000 Y924.958 E5234.60926
G1 X1012.359 Y925.909 E5400.56175
G1 X1025.784 Y926.942 E5580.82809 F1800.000
G1 X1049.463 Y932.590 E5906.74150
G1 X1070.359 Y941.452 E6210.61847
G1 X1087.794 Y953.075 E6491.15574
G1 X1101.090 Y967.009 E6748.99769
G1 X1109.566 Y982.801 E6988.95919
G1 X1112.542 Y1000.000 E7222.64079
G1 X1109.566 Y1017.199 E7456.32253
G1 X1101.090 Y1032.991 E7696.28409
G1 X1089.865 Y1044.755 E7913.96168
G1 E7911.96168 F2400.00000
G92 E0
G1 X1064.555 Y1034.708 F7800.000
G1 E2.00000 F2400.00000
G1 X1079.200 Y1020.063 E516.15494 F1200.000
G1 X1081.380 Y968.252 E1803.48706
G1 X992.696 Y1056.935 E4916.92628
G1 X950.013 Y1049.987 E5990.47696
G1 X1049.987 Y950.013 E9500.30684
G1 X1007.304 Y943.065 E10573.85748
G1 X918.620 Y1031.748 E13687.29709
G1 X920.800 Y979.937 E14974.63123
G1 X935.445 Y965.292 E15488.78348
G1 Z15.000 F7800.000
G1 E15486.78348 F2400.00000
G92 E0
G1 X1087.794 Y1046.925 F7800.000
G1 E2.00000 F2400.00000
G1 X1070.359 Y1058.548 E282.53745 F1800.000
G1 X1049.463 Y1067.410 E586.41401
G1 X1025.784 Y1073.058 E912.32776
G1 X1000.000 Y1075.042 E1258.54642
G1 X974.216 Y1073.058 E1604.76512
G1 X950.537 Y1067.410 E1930.67858
G1 X929.641 Y1058.548 E2234.55554
G1 X912.206 Y1046.925 E2515.09263
G1 X898.910 Y1032.991 E2772.93486
G1 X890.434 Y1017.199 E3012.89627
G1 X887.458 Y1000.000 E3246.57789
G1 X890.434 Y982.801 E3480.25960
G1 X898.910 Y967.009 E3720.22100
G1 X912.206 Y953.075 E3978.06322
G1 X929.641 Y941.452 E4258.60027
G1 X950.537 Y932.590 E4562.47723
G1 X974.216 Y926.942 E4888.39077
G1 X1000.000 Y924.958 E5234.60928
G1 X1021.110 Y926.582 E5518.06196
G1 X1025.784 Y926.942 E5580.82811 F1800.000
G1 X1049.463 Y932.590 E5906.74151
G1 X1070.359 Y941.452 E6210.61848
G1 X1087.794 Y953.075 E6491.15575
G1 X1101.090 Y967.009 E6748.99772
G1 X1109.566 Y982.801 E6988.95920
G1 X1112.542 Y1000.000 E7222.64082
G1 X1109.566 Y1017.199 E7456.32255
G1 X1101.090 Y1032.991 E7696.28411
G1 X1089.865 Y1044.755 E7913.96169
G1 E7911.96169 F2400.00000
G92 E0
G1 X1079.200 Y979.937 F7800.000
G1 E2.00000 F2400.00000
G1 X1064.555 Y965.292 E516.15505 F1200.000
G1 X1081.380 Y1031.748 E2217.96235
G1 X992.696 Y943.065 E5331.40197
G1 X950.013 Y950.013 E6404.95232
G1 X1049.987 Y1049.987 E9914.78123
G1 X1007.304 Y1056.935 E10988.33149
G1 X918.620 Y968.252 E14101.77056
G1 X920.800 Y1020.063 E15389.10550
G1 X935.445 Y1034.708 E15903.25659
M106 S216.75
G1 Z20.000 F7800.000
G1 E15901.25659 F2400.00000
G92 E0
G1 X1081.453 Y1038.598 F7800.000
G1 E2.00000 F2400.00000
G1 X1079.836 Y1039.830 E29.21686 F1800.000
G1 X1065.850 Y1049.154 E254.26184
G1 X1063.585 Y1050.287 E288.16136
G1 X1046.657 Y1057.466 E534.33412
G1 X1043.899 Y1058.310 E572.94467
G1 X1024.610 Y1062.911 E838.43303
G1 X1021.478 Y1063.351 E880.78672
G1 X1000.405 Y1064.972 E1163.73944
G1 X997.223 Y1064.928 E1206.35251
G1 X976.170 Y1063.308 E1489.04606
G1 X973.281 Y1062.808 E1528.29616
G1 X954.038 Y1058.218 E1793.14467
G1 X951.555 Y1057.345 E1828.38612
G1 X934.719 Y1050.205 E2073.21722
G1 X932.759 Y1049.069 E2103.54776
G1 X918.915 Y1039.840 E2326.31017
G1 X917.567 Y1038.594 E2350.88659
G1 X907.242 Y1027.773 E2551.12641
G1 X906.510 Y1026.595 E2569.68975
G1 X899.999 Y1014.462 E2754.03965
G1 X897.598 Y1000.589 E2942.53849
G1 X900.012 Y986.636 E3132.11253
G1 X906.980 Y973.655 E3329.35657
G1 X908.003 Y972.437 E3350.65656
G1 X918.497 Y961.439 E3554.17261
G1 X920.164 Y960.170 E3582.22081
G1 X934.150 Y950.846 E3807.26581
G1 X936.415 Y949.713 E3841.16551
G1 X953.343 Y942.534 E4087.33823
G1 X956.101 Y941.690 E4125.94884
G1 X975.390 Y937.089 E4391.43704
G1 X978.522 Y936.649 E4433.79076
G1 X999.595 Y935.028 E4716.74325
G1 X1002.777 Y935.072 E4759.35627
G1 X1023.830 Y936.692 E5042.05000 F1800.000
G1 X1026.719 Y937.192 E5081.29991
G1 X1045.962 Y941.782 E5346.14842
G1 X1048.445 Y942.655 E5381.38989
G1 X1065.281 Y949.795 E5626.22095
G1 X1067.241 Y950.931 E5656.55170
G1 X1081.085 Y960.160 E5879.31420
G1 X1082.433 Y961.406 E5903.89054
G1 X1092.758 Y972.227 E6104.13061
G1 X1093.490 Y973.405 E6122.69383
G1 X1100.001 Y985.538 E6307.04419
G1 X1102.402 Y999.411 E6495.54194
G1 X1099.988 Y1013.364 E6685.11619
G1 X1093.020 Y1026.345 E6882.36033
G1 X1091.997 Y1027.563 E6903.66020
G1 X1083.531 Y1036.435 E7067.84354
G1 Z25.000 F7800.000
G1 E7065.84354 F2400.00000
G92 E0
G1 X1079.859 Y1036.505 F7800.000
G1 E2.00000 F2400.00000
G1 X1068.806 Y1044.922 E188.00334 F1800.000
G1 X1066.617 Y1046.195 E221.90296
G1 X1050.173 Y1054.423 E468.07609
G1 X1047.474 Y1055.438 E506.68648
G1 X1028.512 Y1061.242 E772.17479
G1 X1025.413 Y1061.878 E814.52827
G1 X1004.484 Y1064.818 E1097.48088
G1 X1001.305 Y1064.974 E1140.09391
G1 X980.192 Y1064.680 E1422.78753
G1 X977.277 Y1064.362 E1462.03753
G1 X957.785 Y1060.989 E1726.88590
G1 X955.251 Y1060.274 E1762.12743
G1 X938.001 Y1054.205 E2006.95870
G1 X935.973 Y1053.194 E2037.28925
G1 X921.576 Y1044.852 E2260.05180
G1 X920.153 Y1043.694 E2284.62793
G1 X909.168 Y1033.542 E2484.86809
G1 X908.365 Y1032.413 E2503.43135
G1 X901.104 Y1020.713 E2687.78134
G1 X897.837 Y1007.018 E2876.27979
G1 X899.371 Y992.941 E3065.85401
G1 X905.509 Y979.548 E3263.09772
G1 X906.454 Y978.268 E3284.39775
G1 X916.237 Y966.633 E3487.91412
G1 X917.821 Y965.262 E3515.96217
G1 X931.194 Y955.078 E3741.00706
G1 X933.383 Y953.805 E3774.90679
G1 X949.827 Y945.577 E4021.07953
G1 X952.526 Y944.562 E4059.68995
G1 X971.488 Y938.758 E4325.17843
G1 X974.587 Y938.122 E4367.53208
G1 X995.516 Y935.182 E4650.48474
G1 X998.695 Y935.026 E4693.09754
G1 X1019.808 Y935.320 E4975.79143
G1 X1022.723 Y935.638 E5015.04142 F1800.000
G1 X1042.215 Y939.011 E5279.88989
G1 X1044.749 Y939.726 E5315.13129
G1 X1061.999 Y945.795 E5559.96224
G1 X1064.027 Y946.806 E5590.29292
G1 X1078.424 Y955.148 E5813.05553
G1 X1079.847 Y956.306 E5837.63170
G1 X1090.832 Y966.458 E6037.87188
G1 X1091.635 Y967.587 E6056.43518
G1 X1098.896 Y979.287 E6240.78459
G1 X1102.163 Y992.982 E6429.28401
G1 X1100.629 Y1007.059 E6618.85769
G1 X1094.491 Y1020.452 E6816.10142
G1 X1093.546 Y1021.732 E6837.40134
G1 X1083.763 Y1033.367 E7040.91781
G1 X1082.243 Y1034.683 E7067.84334
G1 Z30.000 F7800.000
G1 E7065.84334 F2400.00000
G92 E0
G1 X1097.400 Y973.118 F7800.000
G1 E2.00000 F2400.00000
G1 X1101.521 Y986.581 E190.49850 F1800.000
G1 X1100.874 Y1000.727 E380.07284
G1 X1095.589 Y1014.479 E577.31660
G1 X1094.726 Y1015.815 E598.61652
G1 X1085.693 Y1028.041 E802.13264
G1 X1084.198 Y1029.510 E830.18093
G1 X1071.491 Y1040.513 E1055.22605
G1 X1069.386 Y1041.921 E1089.12557
G1 X1053.492 Y1051.165 E1335.29834
G1 X1050.861 Y1052.348 E1373.90879
G1 X1032.301 Y1059.330 E1639.39730
G1 X1029.248 Y1060.160 E1681.75092
G1 X1008.545 Y1064.409 E1964.70376
G1 X1005.382 Y1064.764 E2007.31667
G1 X984.292 Y1065.796 E2290.01024
G1 X981.363 Y1065.662 E2329.26030
G1 X961.697 Y1063.520 E2594.10886
G1 X959.124 Y1062.964 E2629.35046
G1 X941.526 Y1057.991 E2874.18116
G1 X939.439 Y1057.110 E2904.51170
G1 X924.547 Y1049.688 E3127.27451
G1 X923.054 Y1048.621 E3151.85080
G1 X911.454 Y1039.180 E3352.09077
G1 X910.581 Y1038.102 E3370.65404
G1 X902.600 Y1026.882 E3555.00399
G1 X898.479 Y1013.419 E3743.50271
G1 X899.126 Y999.273 E3933.07686
G1 X904.411 Y985.521 E4130.32063
G1 X905.274 Y984.185 E4151.62063
G1 X914.307 Y971.959 E4355.13690
G1 X915.802 Y970.490 E4383.18510
G1 X928.509 Y959.487 E4608.23004
G1 X930.614 Y958.079 E4642.12972
G1 X946.508 Y948.835 E4888.30245
G1 X949.139 Y947.652 E4926.91289
G1 X967.699 Y940.670 E5192.40122
G1 X970.752 Y939.840 E5234.75483
G1 X991.455 Y935.591 E5517.70748
G1 X994.618 Y935.236 E5560.32044
G1 X1015.708 Y934.204 E5843.01415
G1 X1018.637 Y934.338 E5882.26404
G1 X1038.303 Y936.480 E6147.11294
G1 X1040.876 Y937.036 E6182.35448
G1 X1058.474 Y942.009 E6427.18511
G1 X1060.561 Y942.890 E6457.51562
G1 X1075.453 Y950.312 E6680.27858
G1 X1076.946 Y951.379 E6704.85494
G1 X1088.546 Y960.820 E6905.09446
G1 X1089.419 Y961.898 E6923.65779
G1 X1095.661 Y970.674 E7067.84360
G1 Z35.000 F7800.000
G1 E7065.84360 F2400.00000
G92 E0
G1 X1095.520 Y967.056 F7800.000
G1 E2.00000 F2400.00000
G1 X1100.478 Y980.233 E190.49857 F1800.000
G1 X1100.721 Y994.391 E380.07295
G1 X1096.309 Y1008.448 E577.31666
G1 X1095.532 Y1009.836 E598.61671
G1 X1087.284 Y1022.605 E802.13296
G1 X1085.885 Y1024.165 E830.18096
G1 X1073.894 Y1035.944 E1055.22619
G1 X1071.882 Y1037.482 E1089.12583
G1 X1056.599 Y1047.705 E1335.29858
G1 X1054.048 Y1049.051 E1373.90909
G1 X1035.963 Y1057.185 E1639.39720
G1 X1032.968 Y1058.205 E1681.75080
G1 X1012.573 Y1063.745 E1964.70391
G1 X1009.438 Y1064.298 E2007.31682
G1 X988.454 Y1066.652 E2290.01052
G1 X985.523 Y1066.703 E2329.26058
G1 X965.761 Y1065.800 E2594.10877
G1 X963.159 Y1065.407 E2629.35021
G1 X945.283 Y1061.548 E2874.18148
G1 X943.145 Y1060.800 E2904.51216
G1 X927.816 Y1054.328 E3127.27486
G1 X926.259 Y1053.357 E3151.85102
G1 X914.089 Y1044.662 E3352.09067
G1 X913.150 Y1043.642 E3370.65404
G1 X904.480 Y1032.944 E3555.00420
G1 X899.522 Y1019.767 E3743.50289
G1 X899.279 Y1005.609 E3933.07671
G1 X903.691 Y991.552 E4130.32064
G1 X904.468 Y990.164 E4151.62060
G1 X912.716 Y977.395 E4355.13683
G1 X914.115 Y975.835 E4383.18500
G1 X926.106 Y964.056 E4608.23007
G1 X928.118 Y962.518 E4642.12975
G1 X943.401 Y952.295 E4888.30245
G1 X945.952 Y950.949 E4926.91294
G1 X964.037 Y942.815 E5192.40118
G1 X967.032 Y941.795 E5234.75492
G1 X987.427 Y936.255 E5517.70762
G1 X990.562 Y935.702 E5560.32046
G1 X1011.546 Y933.348 E5843.01417
G1 X1014.477 Y933.297 E5882.26425
G1 X1034.239 Y934.200 E6147.11274
G1 X1036.841 Y934.593 E6182.35426
G1 X1054.717 Y938.452 E6427.18521
G1 X1056.855 Y939.200 E6457.51585
G1 X1072.184 Y945.672 E6680.27862
G1 X1073.741 Y946.643 E6704.85489
G1 X1085.911 Y955.338 E6905.09469
G1 X1086.850 Y956.358 E6923.65794
G1 X1093.631 Y964.725 E7067.84344
G1 Z40.000 F7800.000
G1 E7065.84344 F2400.00000
G92 E0
G1 X1095.862 Y966.902 F7800.000
G1 E2.00000 F2400.00000
G1 X1099.039 Y973.963 E105.66559 F1800.000
G1 X1100.170 Y988.078 E295.23913
G1 X1096.650 Y1002.384 E492.48279
G1 X1095.961 Y1003.818 E513.78297
G1 X1088.532 Y1017.080 E717.29939
G1 X1087.233 Y1018.724 E745.34751
G1 X1076.005 Y1031.233 E970.39232
G1 X1074.093 Y1032.894 E1004.29223
G1 X1059.482 Y1044.057 E1250.46462
G1 X1057.021 Y1045.561 E1289.07519
G1 X1039.483 Y1054.814 E1554.56379
